X:39
M:C|
L:1/8
K:D
|:g|fddA FDD=f|e=ccG E=CCg|fddA FAdB|=cBcG E=CC:|
|:f|d2da fdad|Adda e=cge|d2da fdad|AB=cG E=CC:|
|:g|fdAd FDD=f|e=cGc E=CCg|fdcd AdFd|E=cGc E=CC:|

